public/svg/flours.svg

<svg width="43" height="40" viewBox="0 0 43 40" fill="none" xmlns="http://www.w3.org/2000/svg">
<path d="M31.5271 15.3308C34.7841 12.438 36.9882 8.6022 33.4246 5.35649C28.7965 1.12723 23.7635 4.77792 21.5478 9.57416C18.9561 3.38938 13.0264 -3.79054 6.97525 2.33061C3.43478 5.91188 8.13226 10.9627 12.7603 14.058C6.73806 13.3116 -1.74864 13.7109 0.316626 20.1791C1.28273 23.2224 6.58766 22.9562 11.2215 22.1347C6.5356 26.0978 2.60174 31.8834 8.96531 35.6266C12.7661 37.8541 15.9074 34.8977 18.019 31.0329C18.5223 35.1233 20.0379 38.8839 23.6015 39.0806C32.2791 39.5608 31.0122 30.4022 28.542 23.8125C33.9105 27.3995 41.0435 30.6568 42.322 22.3024C43.2071 16.6673 37.1155 15.2093 31.5271 15.3308ZM22.6933 13.7224C22.9327 12.4328 23.4179 11.2013 24.1222 10.0949C25.769 6.26097 28.3916 6.50203 31.9899 10.8181C30.9023 13.1902 27.7668 15.0068 25.2098 16.0656C24.5275 15.1533 23.6234 14.4303 22.5833 13.9654C22.6232 13.8882 22.6543 13.8066 22.6759 13.7224H22.6933ZM7.50167 19.67C7.11634 19.693 6.72999 19.693 6.34466 19.67C6.48102 19.4331 6.52913 19.1556 6.48042 18.8866C6.43171 18.6176 6.28935 18.3745 6.07857 18.2005L6.03807 18.1484V18.079C6.03807 17.9633 6.03807 17.8418 6.03807 17.7261C6.03807 17.269 6.08435 16.8119 6.03807 16.3549C6.03807 16.3028 6.03807 16.2507 6.00915 16.1987L6.28103 16.1003C9.33555 15.0589 13.5529 16.0656 16.6652 16.9392C16.5649 17.43 16.5319 17.9322 16.5669 18.4319C13.5871 19.1405 10.545 19.5552 7.48433 19.67H7.50167ZM18.0421 23.9918C17.2546 26.8784 15.8069 29.5424 13.8132 31.7734L9.94878 27.44C10.8896 26.1098 11.9891 24.8994 13.2231 23.8356C14.4638 22.706 15.8395 21.7343 17.319 20.9428C17.5843 21.4169 17.9176 21.8496 18.3082 22.2272C18.1925 22.7421 18.0999 23.3265 18.0305 23.9918H18.0421ZM17.5388 14.8159C14.5884 13.2827 11.9851 10.6329 10.0645 8.04676L9.36448 6.88965C13.4025 2.91302 16.3085 2.89182 18.0826 6.82601C19.3674 8.77515 20.1613 11.0063 20.3966 13.329C19.9592 13.2899 19.519 13.3636 19.1181 13.5431C18.4806 13.8097 17.9297 14.2484 17.5272 14.8101L17.5388 14.8159ZM21.2181 15.325C22.0972 15.781 22.8069 16.507 23.2429 17.3963C23.1474 17.6549 23.115 17.9325 23.1482 18.2062C23.1814 18.4798 23.2793 18.7416 23.4338 18.9699C23.2602 19.7336 22.323 19.9882 21.6578 20.1271C21.4799 20.1488 21.2995 20.1258 21.1328 20.0601C20.9661 19.9945 20.8184 19.8882 20.7032 19.751C19.633 18.7038 19.4247 16.0424 21.2065 15.325H21.2181ZM21.7966 33.5554C20.5644 30.6163 20.3388 26.6706 20.8247 23.4017C21.553 23.4593 22.2851 23.3599 22.9717 23.1104C23.6583 22.8609 24.2834 22.467 24.8048 21.9553C25.1462 22.5686 25.4701 23.1934 25.7883 23.8298C26.5042 25.3304 27.0569 26.9034 27.437 28.5219C28.9527 32.3327 27.0706 34.0105 21.7908 33.5554H21.7966ZM35.6808 24.6803C34.4 24.2109 33.1741 23.6037 32.0246 22.8694C30.1462 21.7045 28.3505 20.4112 26.6503 18.9989C29.847 18.2531 33.1704 18.2353 36.375 18.9468C39.5992 19.5871 39.3658 21.4963 35.675 24.6745L35.6808 24.6803Z" fill="#3A3C51"/>
</svg>

<svg xmlns="http://www.w3.org/2000/svg" width="43" height="40" fill="none" xmlns:v="https://vecta.io/nano"><path d="M31.527 15.33c3.257-2.893 5.46-6.73 1.897-9.974-4.628-4.23-9.66-.58-11.877 4.218C18.956 3.39 13.026-3.79 6.975 2.33c-3.54 3.58 1.157 8.632 5.785 11.727-6.022-.746-14.51-.347-12.444 6.12.966 3.043 6.27 2.777 10.905 1.956-4.686 3.963-8.62 9.75-2.256 13.492 3.8 2.227 6.942-.73 9.054-4.594.503 4.1 2.02 7.85 5.583 8.048 8.678.48 7.41-8.678 4.94-15.268 5.368 3.587 12.502 6.844 13.78-1.5.885-5.635-5.207-7.093-10.795-6.972zm-8.834-1.608c.24-1.3.725-2.52 1.43-3.627 1.647-3.834 4.27-3.593 7.868.723-1.088 2.372-4.223 4.19-6.78 5.248a6.69 6.69 0 0 0-2.626-2.1c.04-.077.07-.16.093-.243h.017zM7.502 19.67a9.71 9.71 0 0 1-1.157 0c.136-.237.184-.514.136-.783s-.19-.512-.402-.686l-.04-.052v-.422c0-.457.046-.914 0-1.37 0-.052 0-.104-.03-.156l.272-.098c3.055-1.04 7.272-.035 10.384.84-.1.49-.133.993-.098 1.493a46.85 46.85 0 0 1-9.083 1.238h.017zm10.54 4.322a19.3 19.3 0 0 1-4.229 7.782L9.95 27.44a20.03 20.03 0 0 1 3.274-3.604c1.24-1.13 2.616-2.1 4.096-2.893a5.57 5.57 0 0 0 .989 1.284c-.116.515-.208 1.1-.278 1.765h.012zm-.503-9.176c-2.95-1.533-5.554-4.183-7.474-6.77l-.7-1.157c4.038-3.977 6.944-3.998 8.718-.064 1.285 1.95 2.08 4.18 2.314 6.503a2.57 2.57 0 0 0-1.279.214c-.637.267-1.188.705-1.59 1.267l.012.006zm3.68.51a4.63 4.63 0 0 1 2.025 2.071c-.095.26-.128.536-.095.8s.13.535.286.764c-.174.764-1.11 1.018-1.776 1.157-.178.022-.358-.001-.525-.067s-.314-.172-.43-.31c-1.07-1.047-1.278-3.71.503-4.426h.012zm.58 18.23c-1.232-2.94-1.458-6.885-.972-10.154.728.058 1.46-.042 2.147-.29a5.11 5.11 0 0 0 1.833-1.155c.34.613.665 1.238.983 1.874.716 1.5 1.27 3.074 1.65 4.692 1.516 3.81-.366 5.49-5.646 5.034h.006zM35.68 24.68c-1.28-.47-2.507-1.077-3.656-1.81a48.01 48.01 0 0 1-5.374-3.87c3.197-.746 6.52-.764 9.725-.052 3.224.64 2.99 2.55-.7 5.728l.006.006z" fill="#3a3c51"/></svg>
